!!!COM: Claude Debussy
!!!CNT: Francais
!!!TXO: Francais
!!!OTL: De Fleurs...
!!!LYR: Claude Debussy
!!!OPR: Proses Lyriques
!!!ONM: No. 3
!!!ENC: Jacob Pegg
!!!YOR: Claude Debussy: Songs 1880-1904, Edited by Rita Benton
!!!YOR: New York: Dover publications, inc., 1981
!!!YOR: ISBN 0-486-24131-9
!!!ODT: 1893/
!!NB: Vocal melody and text only encoded.
!!NB: First instance of melodic material only encoded.
**kern	**silbe
*clef G2	*
*k[]	*
*M4/4	*
*MM[lento]	*
!!created: 7/23/03 11:07
!!last edit: 7/23/03 13:33
!!notes in 25, words in 13; check notes 14, chk words 12
!!total time: 69 min.
=1	=1
1r	.
=2	=2
2r	.
2r	.
=3	=3
{8g	{Dans
8g	l'en-
4b-	-nui
12r	.
12bn	si
12bn	de/-
12b-	-so-
12b-	-le/-
12b-	-ment
=4	=4
2g}	vert}
{4g	{de
4g	la
=5	=5
2g	ser-
4g	-re
8.g	de
16g	dou-
=6	=6
2g}	-leur,}
4r	.
{4g	{Les
=7	=7
4.cc	fleurs
8cc	en-
4dd	-la-
8dd	-cent
8dd	mon
=8	=8
2ee}	coeur}
{4ee	{de
4ee	leurs
=9	=9
2ee	ti-
4.ee	-ges
8ee	me/-
=10	=10
2ee	-chan-
4ee}	-tes.}
4r	.
!!rest added to correct timing, 'editing.'
=11	=11
1r	.
=12	=12
4r	.
{4e-	{Ah!
4f	quand
8f	re-
8f	-vien-
=13	=13
2.e-	-dront
4f	au-
=14	=14
2f#	-tour
4.fn	de
8fn	ma
=15	=15
2f#	te^-
4fn}	-te}
{4fn	{les
=16	=16
4g-	che\-
4a-	-res
4b-	mains
4cc	si
=17	=17
4aa-	ten-
4ff	-dre-
8ee-	-ment
8cc-	de/-
8a-	-sen-
8f	-la-
=18	=18
4en	-ceu-
2e-}	-ses?}
4r	.
=19	=19
1r	.
=20	=20
2r	.
{4g	{Les
8g	grands
8g	I-
=21	=21
(2.g	-ris
4f	vio-
=22	=22
*k[f#c#g#d#]	*
*MM[moderato]	*
!!Animez progressivement
1e)}	-lets}
=23	=23
4r	.
{4fn	{Vio-
8f#	-le\-
8f#	-rent
8cn	me/-
8cn	-cham-
=24	=24
8e	-ment
8e	tes
2fn}	yeux,}
{8a	{En
8a	sem-
=25	=25
4g	-blant
4a	les
4a#	re-
4e	-fle/-
=26	=26
4g#}	-ter,}
{2a	{Eux,
4a	qui
=27	=27
4a#	fu-
4cc#	-rent
4cc#	l'eau
4dd#	du
=28	=28
2dd#	son-
4a#}	-ge}
4r	.
=29	=29
{4.cc#	{Ou\
8cc#	plon-
4ee#	-ge\-
8cc#	-rent
8ee#	mes
=30	=30
2gg#	re^-
4een	-ves
4dd#	si
=31	=31
4cc#	dou-
4b	-ce-
4a#}	-ment,}
{8g#	{En-
8a#	|
=32	=32
2a#	-clos
4g#	en
8g#	leur
8b	cou-
=33	=33
1b}	-leur;}
=34	=34
*MM[lento]	*
4r	.
{4f#	{Et
4e#	les
4f#	lys,
=35	=35
8e#	blancs
8e#	jets
8b	d'eau
8b	de
8g#	pis-
8g#	-tils
8f#	em-
8f#	-bau-
=36	=36
4e#}	-me/s,}
{8f#	{Ont
8f#	per-
8e#	-du
8e#	leur
8f#	gra^-
8f#	-ce
=37	=37
8e#	blan-
16e#}	-che,}
16r	.
{4b	{Et
4g#	ne
4f#	sont
=38	=38
4dd#	plus
4b	que
4g#	pau-
8f#	-vres
8f#	ma-
=39	=39
4ee#	-la-
4dd#	-des
4b	sans
4g#	so-
=40	=40
*k[b-e-a-]	*
*MM[moderato]	*
[1aa-	-leil!
=41	=41
4aa-]}	|}
4r	.
4r	.
{4g-	{So-
=42	=42
2.a-}	-leil!}
{4a-	{a-
=43	=43
4g-	-mi
4g-	des
4.g-	fleurs
8g-	mau-
=44	=44
2a-	-vai-
4f}	-ses,}
4r	.
=45	=45
2r	.
4r	.
{4f	{Tu-
=46	=46
*k[]	*
*M3/4	*
*MM[allegro]	*
8b-	-eur
8b-	de
4f#	re^-
4g}	-ves!}
=47	=47
8r	.
{8cc	{Tu-
8g#	-eur
8g#	d'il-
8a	-lu-
8a	-si-
=48	=48
4dd}	-ons,}
{4b-	{Ce
8bn	pain
8bn	be/-
=49	=49
8ee	-ni
8ee	des
8ee	a^-
8ee	-mes
8ee	mi-
8ee	-se/-
=50	=50
2ff#	-ra-
4ee}	-bles!}
=51	=51
4r	.
2r	.
=52	=52
2r	.
4r	.
=53	=53
*M4/4	*
*k[f#c#g#d#a#]	*
8.r	.
{(16dd#	{Ve-
2ff#)}	-nez!}
4r	.
=54	=54
8.r	.
{(16dd#	{Ve-
2ff#)	-nez!
4ff#	Les
=55	=55
2gg#	mains
4.ff#	sal-
8dd#	-va-
=56	=56
[2dd#	-tri-
4dd#]}	-ces!}
4r	.
=57	=57
*k[]	*
8.r	.
{16ee	{Bri-
8gg	-sez
8g	les
8g	vi-
8g	-tres
8b-	de
8dd-	men-
=58	=58
8ee	-son-
8cc}	-ge,}
8.r	.
{16ee	{Bri-
4.gg	-sez
8gg	les
=59	=59
2aa	vi-
8gg	-tres
8ee	de
(12dd	ma-
12g)	|
12b-	-le/-
=60	=60
2b-	-fi-
4e-}	-ce,}
4r	.
=61	=61
8.r	.
{(16b-	{Mon
2ee-)	a^-
4ee-	-me
=62	=62
4.gg-	meurt
8ee-	de
6dd-	trop
6b-	de
6cc	so-
=63	=63
2.g-}	-leil!}
4r	.
=64	=64
*k[f#c#]	*
*MM[lento]	*
4r	.
8.r	.
{16f#	{Mi-
4f#	-ra-
8f#}	-ges!}
8r	.
=65	=65
1r	.
=66	=66
{6f#	{Plus
12f#	ne
8f#	re-
8f#	-fleu-
8f#	-ri-
4g#	-ra
8a	la
=67	=67
4b-	joie
6b-	de
12b-	mes
2g}	yeux,}
=68	=68
4r	.
{6d#	{Et
12d#	mes
[4d#	mains
8d#]	|
8d#	sont
=69	=69
4d#	las-
12d#	-ses
12d#	de
12d#	pri-
4d#}	-er,}
12r	.
12r	.
{12g#	{Mes
=70	=70
4dd#	yeux
4ee	sont
4gg#	las
6dd#	de
12dd#	pleu-
=71	=71
2ffn}	-rer!}
12r	.
12r	.
{12d#	{E-
12d#	-ter-
12d#	-nel-
12d#	-le-
=72	=72
*k[]	*
4f	-ment
12r	.
12f	ce
12f	bruit
6d#	fou
12d#	des
12d#	pe/-
12d#	-ta-
12d#	-les
=73	=73
4fn	noirs
8fn	de
8fn	l'en-
6d#}	-nui,}
{12d#	{Tom-
12d#	-bant
12d#	gout-
12d#	-te a\
=74	=74
4c	gout-
8c}	-te}
8r	.
8r	.
{4c	{sur
8c	ma
=75	=75
2c	te^-
4c}	-te}
4r	.
=76	=76
4r	.
{8.e-	{Dans
16e-	le
4g-	vert
8.g-	de
16g-	la
=77	=77
2b--	ser-
4g-	-re
8.g-	de
16g-	dou-
=78	=78
1e}	-leur!}
*-	*-
